azure-patterns/svg-buildings.svg

<svg xmlns="http://www.w3.org/2000/svg" viewBox="0 0 157 157">
                                
                            
<path d="M134.047 82.0137H111.762V148.871H134.047V82.0137Z" fill="black"></path>
<path d="M78.3331 7.72803C39.3579 7.72803 7.76172 39.3242 7.76172 78.2995H22.6189C22.6189 63.4175 28.4131 49.4271 38.937 38.9033C49.4608 28.3795 63.4512 22.5852 78.3331 22.5852C93.215 22.5852 107.206 28.3795 117.729 38.9033C128.253 49.4271 134.047 63.4175 134.047 78.2995H148.905C148.905 39.3242 117.308 7.72803 78.3331 7.72803Z" fill="#50E6FF"></path>
<path d="M111.761 44.8711H44.9043V148.871H111.761V44.8711Z" fill="#0078D4"></path>
<path d="M70.9044 85.728H26.333V145.157H70.9044V85.728Z" fill="white"></path>
<path d="M67.1901 89.4422V141.442H30.0472V89.4422H67.1901V89.4422ZM74.6187 82.0137H22.6187V148.871H74.6187V82.0137Z" fill="#50E6FF"></path>
<path d="M59.7615 96.8711H37.4758V104.3H59.7615V96.8711Z" fill="#50E6FF"></path>
<path d="M59.7615 111.728H37.4758V119.157H59.7615V111.728Z" fill="#50E6FF"></path>
<path d="M59.7615 126.585H37.4758V134.014H59.7615V126.585Z" fill="#50E6FF"></path>
<path d="M74.6189 59.728H59.7617V74.5852H74.6189V59.728Z" fill="white"></path>
<path d="M96.9045 59.728H82.0474V74.5852H96.9045V59.728Z" fill="white"></path>
<path d="M96.9045 82.0137H82.0474V96.8708H96.9045V82.0137Z" fill="white"></path>
<path d="M96.9045 104.3H82.0474V119.157H96.9045V104.3Z" fill="white"></path>
<path d="M96.9045 126.585H82.0474V141.443H96.9045V126.585Z" fill="white"></path>
<path d="M134.047 134.014C138.15 134.014 141.476 130.688 141.476 126.585C141.476 122.483 138.15 119.157 134.047 119.157C129.945 119.157 126.619 122.483 126.619 126.585C126.619 130.688 129.945 134.014 134.047 134.014Z" fill="white"></path>
<path d="M145.19 126.585C145.19 120.444 140.188 115.442 134.047 115.442C127.906 115.442 122.904 120.444 122.904 126.585C122.904 131.439 126 135.549 130.333 137.084V148.871H137.761V137.084C142.095 135.549 145.19 131.414 145.19 126.585ZM134.047 130.3C131.992 130.3 130.333 128.64 130.333 126.585C130.333 124.53 131.992 122.871 134.047 122.871C136.102 122.871 137.761 124.53 137.761 126.585C137.761 128.64 136.102 130.3 134.047 130.3Z" fill="#0078D4"></path>
</svg>

<svg xmlns="http://www.w3.org/2000/svg" viewBox="0 0 157 157"><path d="M134.047 82.014h-22.285v66.857h22.285V82.014z"/><path d="M78.333 7.728c-38.975 0-70.571 31.596-70.571 70.571h14.857c0-14.882 5.794-28.872 16.318-39.396C49.461 28.38 63.451 22.585 78.333 22.585c14.882 0 28.873 5.794 39.396 16.318 10.524 10.524 16.318 24.514 16.318 39.396h14.858c0-38.975-31.597-70.571-70.572-70.571z" fill="#50E6FF"/><path d="M111.761 44.871H44.904v104h66.857v-104z" fill="#0078D4"/><path d="M70.904 85.728H26.333v59.429h44.571V85.728z" fill="#fff"/><path d="M67.19 89.442v52H30.047v-52H67.19zm7.429-7.428h-52v66.857h52V82.014z" fill="#50E6FF"/><path d="M59.761 96.871H37.477v7.429H59.76v-7.429zM59.761 111.728H37.477v7.429H59.76v-7.429zM59.761 126.585H37.477v7.429H59.76v-7.429z" fill="#50E6FF"/><path d="M74.619 59.728H59.762v14.857h14.857V59.728zM96.904 59.728H82.047v14.857h14.858V59.728zM96.904 82.014H82.047V96.87h14.858V82.014zM96.904 104.3H82.047v14.857h14.858V104.3zM96.904 126.585H82.047v14.858h14.858v-14.858zM134.047 134.014a7.429 7.429 0 1 0 0-14.858 7.429 7.429 0 0 0 0 14.858z" fill="#fff"/><path d="M145.19 126.585c0-6.141-5.002-11.143-11.143-11.143-6.141 0-11.143 5.002-11.143 11.143 0 4.854 3.096 8.964 7.429 10.499v11.787h7.428v-11.787c4.334-1.535 7.429-5.67 7.429-10.499zm-11.143 3.715a3.71 3.71 0 0 1-3.714-3.715 3.71 3.71 0 0 1 3.714-3.714 3.71 3.71 0 0 1 3.714 3.714 3.71 3.71 0 0 1-3.714 3.715z" fill="#0078D4"/></svg>
